assets/img/products/products-insights/peak-logo.svg

<svg enable-background="new 0 0 80 32" viewBox="0 0 80 32" xmlns="http://www.w3.org/2000/svg"><path d="m9.6 10.1h-7.6v18.9h3.4v-6.1h3.8c4.2 0 7.7-2.2 7.7-6.5 0-3.8-2.8-6.3-7.3-6.3zm-.3 9.8h-3.9v-6.8h3.9c2.5 0 4.1 1.2 4.1 3.4.1 2.1-1.5 3.4-4.1 3.4zm11.1 1.2h15.2v-3.1h-15.2zm0-16h15.2v-3.1h-15.2zm0 8h15.2v-3.2h-15.2zm24.7-3.2-8.5 19.1h3.4l2-4.6h9.1l2 4.6h3.6l-8.5-19.1zm-1.8 11.6 3.3-7.6 3.3 7.6zm25.4-3.3 8-8.1h-4.1l-9.1 9.5v-9.5h-3.5v18.9h3.4v-5.5l3-3 6.6 8.5h4z" fill="#9ba0aa"/></svg>

<?xml version="1.0" encoding="utf-8"?>
<!-- Generator: Adobe Illustrator 22.0.1, SVG Export Plug-In . SVG Version: 6.00 Build 0)  -->
<svg version="1.1" id="Layer_1" xmlns="http://www.w3.org/2000/svg" xmlns:xlink="http://www.w3.org/1999/xlink" x="0px" y="0px"
	 viewBox="0 0 80 32" style="enable-background:new 0 0 80 32;" xml:space="preserve">
<style type="text/css">
	.st0{fill:#9BA0AA;}
</style>
<path id="peak-logo" class="st0" d="M9.6,10.1H2V29h3.4v-6.1h3.8c4.2,0,7.7-2.2,7.7-6.5C16.9,12.6,14.1,10.1,9.6,10.1z M9.3,19.9
	H5.4v-6.8h3.9c2.5,0,4.1,1.2,4.1,3.4C13.5,18.6,11.9,19.9,9.3,19.9z M20.4,21.1h15.2v-3.1H20.4V21.1z M20.4,5.1h15.2V2H20.4V5.1z
	 M20.4,13.1h15.2V9.9H20.4V13.1z M45.1,9.9L36.6,29H40l2-4.6h9.1l2,4.6h3.6L48.2,9.9H45.1z M43.3,21.5l3.3-7.6l3.3,7.6H43.3z
	 M68.7,18.2l8-8.1h-4.1l-9.1,9.5v-9.5H60V29h3.4v-5.5l3-3l6.6,8.5H77L68.7,18.2z"/>
</svg>
